X:1
T:Afterwards
T:Afterwards
T:John W. Mullen
T:Mary Mark Lemon
T:by Mutopia-2007/01/02-903
T:by Mutopia-2007/01/02-903
T:by Mutopia-2007/01/02-903
T:by Mutopia-2007/01/02-903
C:John W. Mullen
Z:Mary Mark Lemon
Z:by Mutopia-2007/01/02-903
%%score 1 { 2 | ( 3 4 ) }
L:1/8
Q:1/4=60
M:4/4
K:C
V:1 treble nm="Voice"
V:2 treble nm="Piano"
V:3 bass 
V:4 bass 
V:1
 z8 | z8 | z8 | z8 ||!p! c2 B3/2 A/ G3 ^G | A G D G!>(! F2 E2!>)! |!>(! c2 B3/2!>)! A/ B3 B | %7
w: ||||Af- ter the day has|sung its song of sor- row,|And one by one the|
!<(! d!<)! c B3/2 A/ d4 |!p! c2 B3/2 A/ G3 ^G | A G D G F2 E2 | z E E E"^poco rit." B3 E | %11
w: gold- en stars ap pear,|I lin- ger yet, where|once we met, be- lov- ed,|And seem to feel thy|
 G ^F E _E =E4 | z"^dolce." G G G c3 c | c B A ^G A2 E2 | z E E E e3 A | c B A ^G A4 | %16
w: spir- it still is near.|The flow’rs have fled that|blos som’d in that Spring- tide.|The birds are mute, that|sang their songs a- bove,|
 z A =G ^F B3 B | (d A B3/2 c/)!>(! c2 B2!>)! | z G G G D3 D | E E ^F3/2 G/ G2 z2 | %20
w: And tho’ the years have|drift- ed us a sun der,|Time can not break the|gold en chain of love;|
"^dolce." e2 d c B3 A | G ^G B3/2 A/ A2 =G2 | c2 B3/2 A/ d3 c | B A E ^F!<(! G4!<)! | %24
w: Still we can love, al|tho’ the sha- dows gath- er,|Still we can hope, un|til the clouds be past,|
 e2!>(! d3/2 c/!>)! B3 A | G ^G B3/2 A/ A2 =G2 | c2 ^c3/2 c/ d3 A |"^rit." c B A !fermata!B c4 | %28
w: Come to my heart and|whis per thro’ the si- lence,|“Hope on, dear heart, our|lives shall meet at last.”|
 z8 | z8 | z8 | z8 ||!p! c2 B3/2 A/ G3 ^G | A G D G F2 E2 | c2 B A B3 B | d c B A d4 | %36
w: ||||Some- times my heart grows|wea- ry of its sad- ness,|Some- times my life grows|wea- ry of its pain,|
!p! c2 B A G3 ^G | A G D G F2 E2 |!<(! z E E E B3 E!<)! |!>(! G ^F E _E!>)! =E4 | z G G G c3 c | %41
w: Then, love, I wait, and|list- en for your whis- per,|Till fears de- part, and|sun shine comes a- gain;|It can- not be that|
 c B A ^G A2 E2 | z E E E e3 A | c B A ^G A4 | z A G ^F B3 B | d A B3/2 c/ c3 B | z G G G D3 D | %47
w: we should part for- ev- er,|That love’s sweet song is|hush’d for us al- way;|I hear it yet, al-|tho’ its theme be al- tered,|’Twill reach thy heart, and|
 E E ^F3/2 F/ G2 z2 |!p! e2 d3/2 c/ B3 A | G ^G B3/2 A/ A2 =G2 | c2 B3/2 A/ d3 c | %51
w: bring thee back some day,|Love, we can love, al-|tho’ the sha- dows gath- er,|Still we can hope, un-|
 B A E ^F!<(! G4!<)! |!ff! e2 d c B3 A | G ^G B3/2 A/ A2 =G2 | c2 ^c3/2 c/ d3 A | c B c3/2 d/ e4 | %56
w: til the clouds be past,|Come to my heart! and|whis per thro’ the si- lence,|“Hope on, dear heart, our|lives shall meet at last;”|
!<(! e2!<)! f ^f!>(! g3 G!>)! | A B !fermata!d3/2 c/ !fermata!c4 | z8 | z8 |] %60
w: “Hope on, dear heart, our|lives shall meet at last.”|||
V:2
!mf! [ee']2!>(! [dd']>[cc'] [Bb]3 [Aa]!>)! | ([Gg][^G^g][Bb]>!>(![Aa]) ([Aa]2 [=G=g]2)!>)! | %2
w: ||
!<(! ([cc']2 [^c^c']>!<)![cc'])!>(! ([dd']3 [Aa])!>)! | %3
w: |
!>(! ([=c=c'][Bb][Aa]!>)![Bb]) [cc'] [CE][CE][CE] ||!p! z [G,CE][G,CE][G,CE] z [G,CF][G,CF][G,CF] | %5
w: ||
 z [G,B,F][G,B,F][G,B,F] z [G,CE][G,CE][G,CE] | z!>(! [G,CG][G,CG][G,CG]!>)! z [B,DG][B,DG][B,DG] | %7
w: ||
!<(! z [C^FA][CFA][CFA]!<)! z!>(! [B,G][A,CF][G,D=F]!>)! | %8
w: |
!p! z [G,CE][G,CE][G,CE] z [G,B,F][G,B,F][G,B,F] | z [G,B,F][G,B,F][G,B,F] z [G,CE][G,CE][G,CE] | %10
w: ||
 z [G,^A,E][G,A,E][G,A,E] z [B,EG][B,EG][B,EG] | %11
w: * * * colla voce * *|
 z [A,B,^F][G,B,E][A,B,^D] z [G,B,E][G,B,E][G,B,E] | z [B,=FG][B,FG][B,FG] z [CEG][CEG][CEG] | %13
w: ||
 z ([DE^G][CEA][DEB]) z [CEA][CEA][CEA] |!<(! z [DE^G][DEG][DEG] z [CEA]!<)![CEA][CEA] | %15
w: ||
!>(! z ([DF][CE][B,D])!>)! z ([A,C][CE][CEA]) | z [CDA][CD=G][CD^F] z [B,DG][B,DG][B,DG] | %17
w: ||
 z [C^F][CF][CF] z [B,G][B,G][B,G] |!<(! z [CGA] z [^CE_B] z [DG=B][DGB][DGB]!<)! | %19
w: ||
!>(! z [^CGA]z[=CD^FA]!>)!"_rit." z g[^fa][=fb] |"_a tempo." [ec']2 [db]>[ca] [Bg]3 [Af] | %21
w: ||
 [Ge][^Ge] [Bg]>[Af] (([Af]2 [=Ge]2)) |!>(! [ec']2 [db]>[ca] [Bd]4!>)! | %23
w: ||
 z [^CGA]z[=CD^FA] [B,DG] ([Bgb][cac'][dbd']) |!ff! [ec'e']2 [dbd']>[cac'] [Bgb]3 [Afa] | %25
w: ||
 [Geg][^Ge^g] [B=gb]>[Afa] ([Afa]2 [=Gceg]2) |!p! z!<(! [G,CG] z [G,^CG] z [A,D^F] z [A,CF]!<)! | %27
w: ||
 z [G,B,F][G,B,F]!fermata![G,B,F] [G,CE]4 | [ec'e']2!mf! [dbd']>[cac'] [Bgb]3 [Afa] | %29
w: ||
 ([Geg][^Ge^g][Bgb]>[Afa])!>(! ([Afa]2 [=Ge=g]2)!>)! | %30
w: |
!<(! ([cc']2 [^c^c']>!<)![cc'])!>(! (([dd']3 [Aa]))!>)! | %31
w: |
!>(! ([cc'][Bb][Aa]!>)![Bb])!p! [cc'] [G,CE][G,CE][G,CE] || %32
w: |
 z [G,CE][G,CE][G,CE] z [G,B,F][G,B,F][G,B,F] | z [G,B,F][G,B,F][G,B,F] z [G,CE][G,CE][G,CE] | %34
w: ||
 z!>(! [G,CG][G,CG][G,CG]!>)! z [B,DG][B,DG][B,DG] | %35
w: |
"_rall." z!>(! [C^FA][CFA][CFA] z ([B,G]!>)![A,CF][G,D=F]) | %36
w: |
!p! z [G,CE][G,CE][G,CE] z [G,B,F][G,B,F][G,B,F] | z [G,B,F][G,B,F][G,B,F] z [G,CE][G,CE][G,CE] | %38
w: ||
 z [G,_B,E][G,B,E][G,B,E] z [=B,EG][B,EG][B,EG] | %39
w: |
 z [A,B,^F][G,B,E][A,B,^D] z [G,B,E][G,B,E][G,B,E] | z [B,=FG][B,FG][B,FG] z [CEG][CEG][CEG] | %41
w: ||
 z [DE^G][CEA][DEB] z [CEA][CEA][CEA] |!<(! z [DE^G][DEG][DEG] z [CEA][CEA][CEA]!<)! | %43
w: ||
 z!>(! ([DF][CE][B,D])!>)! z ([A,C][CE][CEA]) | z [CDA][CDG][CD^F] z [B,DG][B,DG][B,DG] | %45
w: ||
 z [C^F][CF][CF] z [B,G][B,G][B,G] |!<(! z [CGA] z [^CG_B] z [DG=B][DGB][DGB]!<)! | %47
w: ||
!>(! z [^CGA] z [=CD^FA]!>)! z (g[^fa][=fb]) |!p!!>(! [ec']2 [db]>[ca] [Bg]3 [Af]!>)! | %49
w: ||
 [Ge][^Ge] [Bg]>[Af] (([Af]2 [=Ge]2)) | [ec']2 [db]>[ca] [Bd]4 | %51
w: ||
 z [^CGA]z[=CD^FA] [B,DG]!<(! ([Bgb][cac'][dbd'])!<)! |!ff! [ec'e']2 [dbd'][cac'] [Bgb]3 [Afa] | %53
w: ||
 [Geg][^Ge^g][B=gb]>!>(![Afa] ([Afa]2!>)! [=Geg]2) |!p! z [G,CG]z[G,^CG] z [A,D^F][A,DF][A,DF] | %55
w: ||
 z [B,DG][B,DG][B,DG] z [B,E^G][B,EG][B,EG] | %56
w: |
!<(! z [CEA] z!<)! [C^Fc]!>(! z [CEGc][CEGc][CEG]!>)! | %57
w: |
 [A,C^F]2 !fermata![G,B,=F]2 !fermata![G,CE]4 |"^Lento."!<(! [CE]4 [CEG]4!<)! |!>(! [CEGc]8!>)! |] %60
w: |||
V:3
 [C,,C,][G,CE][G,CE][G,CE] [D,,D,][G,B,D][G,B,D][G,B,D] | %1
 [G,,G,][G,B,F][G,B,F][G,B,F] [C,,C,][G,CE][G,CE][G,CE] | %2
 [A,,A,][A,CE]G,[_B,^CE] [D,,D,][F,A,D][F,A,D][F,A,D] | %3
 [G,,G,][K:treble] [G,DF][G,DF][G,DF] [CE]2 z2 ||[K:bass] C,2 z2 D,2 z2 | G,,2 z2 C,2 z2 | %6
 E,2 z2 D,2 z2 | D,2 z2 G,,2 (A,,B,,) | C,2 z2 D,2 z2 | G,,2 z2 C,2 z2 | C,2 z2 B,,2 z2 | %11
 (B,,4 E,2) z2 | (D,4 C,2) z2 | E,2 z2 A,,2 z2 | B,,4 C,4 | D,2 E,2 A,2 z2 | ^F,2 D,2 G,2 D,2 | %17
 A,2 D,2 G,2 F,2 | (E,2 _E,2 D,4) | D,,2 D,2 G,, (B,CD) | (C,G,CG,) (G,,G,B,G,) | %21
 (G,,G,B,G,) (C,G,CG,) | (A,,A,CA,) (D,G,B,D) | D,2 D,2 [G,,G,][G,DG][G,_E^F][G,D=F] | %24
 [C,,C,] [G,CE][G,CE][G,CE] [D,,D,] [G,B,F][G,B,F][G,B,F] | %25
 [G,,G,] [G,B,F][G,B,F][G,B,F] [C,,C,] (G,CE) | E,2 E,2 D,2 D,2 | %27
"^rit." !fermata!G,,4 (C,,C,E,G,) | [C,,C,] [G,CE][G,CE][G,CE] [D,,D,] [G,B,F][G,B,F][G,B,F] | %29
 [G,,G,] [G,B,F][G,B,F][G,B,F] [C,,C,] [G,CE][G,CE][G,CE] | %30
 [A,,A,][A,CE][G,,G,][_B,^CE] [D,,D,] [F,A,D][F,A,D][F,A,D] | %31
 [G,,G,] [G,DF][G,DF][G,DF] [CE] z z2 || C,2 z2 D,2 z2 | G,,2 z2 C,2 z2 | E,2 z2 D,2 z2 | %35
 D,2 z2 G,,2 (A,,B,,) | C,2 z2 D,2 z2 | G,,2 z2 C,2 z2 | C,2 z2 B,,2 z2 | (B,,4 E,2) z2 | %40
 (D,4 C,2) z2 | E,2 z2 A,,2 z2 | B,,4 C,4 | D,2 E,2 A,2 z2 | ^F,2 D,2 G,2 D,2 | A,2 D,2 G,2 F,2 | %46
 (E,2 _E,2 D,4) | D,,2 D,2"^rit." G,, (B,CD) | (C,G,CG,) (G,,G,B,G,) | (G,,G,B,G,) (C,G,CG,) | %50
 (A,,A,CA,) (D,G,B,D) | D,2 D,2 [G,,G,] [G,DF][G,C_E^F][G,D=F] | %52
 [C,,C,] [G,CE][G,CE][G,CE] [D,,D,] [G,B,F][G,B,F][G,B,F] | %53
 [G,,G,] [G,B,F][G,B,F][G,B,F] [C,,C,] (G,CE) | E,2 E,2 D, z C,2 | (G,,2 F,,2 E,,4) | %56
 (A,,2 ^G,,2 =G,,4) | G,,2 !fermata![G,,,G,,]2 !fermata![C,,C,]4 |!ped! [G,,G,]4 [E,,E,]4 | %59
 [C,,C,]8!ped-up! |] %60
V:4
 x8 | x8 | x8 | x[K:treble] x7 ||[K:bass] x8 | x8 | x8 | x8 | x8 | x8 | x8 | x8 | x8 | x8 | x8 | %15
 x8 | x8 | x8 | x8 | x5 G,3 | x8 | x8 | x8 | x8 | x8 | x8 | x8 | x8 | x8 | x8 | x8 | x8 || x8 | %33
 x8 | x8 | x8 | x8 | x8 | x8 | x8 | x8 | x8 | x8 | x8 | x8 | x8 | x8 | x5 G,3 | x8 | x8 | x8 | x8 | %52
 x8 | x8 | x8 | x8 | x8 | x8 | x8 | x8 |] %60

